X:1
T:Barbro Pers Polska
R:Polska
Z:Henrik berg, 090103
O:lvdalen
S:Svenska Ltar
M:3/4
L:1/8
K:F
|:[K:Gm]G>B-B>d fe|d>c- c>B- BA|G>B-B>d fe|d>c- c>B- BA|G2G>B A/2B/2A/2B/2|1^F>GG2cB:|2^F>GG4 |]
